ui/StatusQ/src/assets/img/icons/tributeToTalk.svg

<svg fill="none" height="25" viewBox="0 0 24 25" width="24" xmlns="http://www.w3.org/2000/svg"><g fill="#000"><path d="m13.8417 12.3627c-.6781.039-1.2297-.0204-1.7813-.0798-.5518-.0594-1.1036-.1189-1.7822-.0797-.33647.0189-.67064.0677-.99855.1457.20026-2.50901 1.97595-4.70387 4.39065-4.84339 1.4818-.0855 2.9629.8294 3.0432 2.31461.0791 1.45978-1.0341 2.43658-2.8718 2.54258z"/><path d="m10.1988 17.4948c-1.41954.0802-2.83819-.7763-2.91523-2.1661-.07576-1.3662.99074-2.2802 2.75113-2.3794.6496-.0366 1.178.019 1.7064.0746.5286.0557 1.0572.1113 1.7071.0746.3221-.0177.6422-.0633.9565-.1364-.1915 2.3481-1.8925 4.4024-4.2059 4.5327z"/><path clip-rule="evenodd" d="m2 12.5c0-5.52285 4.47715-10 10-10 5.5228 0 10 4.47715 10 10v6.6667c0 1.8409-1.4924 3.3333-3.3333 3.3333h-6.6667c-5.52285 0-10-4.4772-10-10zm18.5 0v6.6667c0 1.0125-.8208 1.8333-1.8333 1.8333h-6.6667c-4.69442 0-8.5-3.8056-8.5-8.5 0-4.69442 3.80558-8.5 8.5-8.5 4.6944 0 8.5 3.80558 8.5 8.5z" fill-rule="evenodd"/></g></svg>

<svg width="24" height="25" viewBox="0 0 24 25" fill="none" xmlns="http://www.w3.org/2000/svg">
<path d="M13.8417 12.3627C13.1636 12.4017 12.612 12.3423 12.0604 12.2829C11.5086 12.2235 10.9568 12.164 10.2782 12.2032C9.94173 12.2221 9.60756 12.2709 9.27965 12.3489C9.47991 9.83989 11.2556 7.64503 13.6703 7.50551C15.1521 7.42001 16.6332 8.33491 16.7135 9.82012C16.7926 11.2799 15.6794 12.2567 13.8417 12.3627Z" fill="black"/>
<path d="M10.1988 17.4948C8.77926 17.575 7.36061 16.7185 7.28357 15.3287C7.20781 13.9625 8.27431 13.0485 10.0347 12.9493C10.6843 12.9127 11.2127 12.9683 11.7411 13.0239C12.2697 13.0796 12.7983 13.1352 13.4482 13.0985C13.7703 13.0808 14.0904 13.0352 14.4047 12.9621C14.2132 15.3102 12.5122 17.3645 10.1988 17.4948Z" fill="black"/>
<path fill-rule="evenodd" clip-rule="evenodd" d="M2 12.5C2 6.97715 6.47715 2.5 12 2.5C17.5228 2.5 22 6.97715 22 12.5V19.1667C22 21.0076 20.5076 22.5 18.6667 22.5H12C6.47715 22.5 2 18.0228 2 12.5ZM20.5 12.5V19.1667C20.5 20.1792 19.6792 21 18.6667 21H12C7.30558 21 3.5 17.1944 3.5 12.5C3.5 7.80558 7.30558 4 12 4C16.6944 4 20.5 7.80558 20.5 12.5Z" fill="black"/>
</svg>
